assets/svg/ruby.svg

<?xml version="1.0" encoding="UTF-8"?>
<svg width="40px" height="40px" viewBox="0 0 40 40" version="1.1" xmlns="http://www.w3.org/2000/svg" xmlns:xlink="http://www.w3.org/1999/xlink">
    <title>ruby</title>
    <defs>
        <linearGradient x1="84.7503645%" y1="111.399353%" x2="58.2543962%" y2="64.5837087%" id="linearGradient-1">
            <stop stop-color="#FB7655" offset="0%"></stop>
            <stop stop-color="#FB7655" offset="0%"></stop>
            <stop stop-color="#E42B1E" offset="41%"></stop>
            <stop stop-color="#990000" offset="99%"></stop>
            <stop stop-color="#990000" offset="100%"></stop>
        </linearGradient>
        <linearGradient x1="116.651024%" y1="60.8903211%" x2="1.74616041%" y2="19.2879503%" id="linearGradient-2">
            <stop stop-color="#871101" offset="0%"></stop>
            <stop stop-color="#871101" offset="0%"></stop>
            <stop stop-color="#911209" offset="99%"></stop>
            <stop stop-color="#911209" offset="100%"></stop>
        </linearGradient>
        <linearGradient x1="75.7744024%" y1="219.327131%" x2="38.9781357%" y2="7.82868176%" id="linearGradient-3">
            <stop stop-color="#871101" offset="0%"></stop>
            <stop stop-color="#871101" offset="0%"></stop>
            <stop stop-color="#911209" offset="99%"></stop>
            <stop stop-color="#911209" offset="100%"></stop>
        </linearGradient>
        <linearGradient x1="50.012428%" y1="7.23449921%" x2="66.4830414%" y2="79.1354134%" id="linearGradient-4">
            <stop stop-color="#FFFFFF" offset="0%"></stop>
            <stop stop-color="#FFFFFF" offset="0%"></stop>
            <stop stop-color="#E57252" offset="23%"></stop>
            <stop stop-color="#DE3B20" offset="46%"></stop>
            <stop stop-color="#A60003" offset="99%"></stop>
            <stop stop-color="#A60003" offset="100%"></stop>
        </linearGradient>
        <linearGradient x1="46.1741749%" y1="16.347907%" x2="49.9323342%" y2="83.0468449%" id="linearGradient-5">
            <stop stop-color="#FFFFFF" offset="0%"></stop>
            <stop stop-color="#FFFFFF" offset="0%"></stop>
            <stop stop-color="#E4714E" offset="23%"></stop>
            <stop stop-color="#BE1A0D" offset="56%"></stop>
            <stop stop-color="#A80D00" offset="99%"></stop>
            <stop stop-color="#A80D00" offset="100%"></stop>
        </linearGradient>
        <linearGradient x1="36.9653573%" y1="15.5936471%" x2="49.5282324%" y2="92.4776332%" id="linearGradient-6">
            <stop stop-color="#FFFFFF" offset="0%"></stop>
            <stop stop-color="#FFFFFF" offset="0%"></stop>
            <stop stop-color="#E46342" offset="18%"></stop>
            <stop stop-color="#C82410" offset="40%"></stop>
            <stop stop-color="#A80D00" offset="99%"></stop>
            <stop stop-color="#A80D00" offset="100%"></stop>
        </linearGradient>
        <linearGradient x1="13.6086166%" y1="58.3456855%" x2="85.7636612%" y2="-46.7167814%" id="linearGradient-7">
            <stop stop-color="#FFFFFF" offset="0%"></stop>
            <stop stop-color="#FFFFFF" offset="0%"></stop>
            <stop stop-color="#C81F11" offset="54%"></stop>
            <stop stop-color="#BF0905" offset="99%"></stop>
            <stop stop-color="#BF0905" offset="100%"></stop>
        </linearGradient>
        <linearGradient x1="27.6242038%" y1="21.1345847%" x2="50.7445145%" y2="79.0557818%" id="linearGradient-8">
            <stop stop-color="#FFFFFF" offset="0%"></stop>
            <stop stop-color="#FFFFFF" offset="0%"></stop>
            <stop stop-color="#DE4024" offset="31%"></stop>
            <stop stop-color="#BF190B" offset="99%"></stop>
            <stop stop-color="#BF190B" offset="100%"></stop>
        </linearGradient>
        <linearGradient x1="-20.6671297%" y1="122.281897%" x2="104.241521%" y2="-6.34211007%" id="linearGradient-9">
            <stop stop-color="#BD0012" offset="0%"></stop>
            <stop stop-color="#BD0012" offset="0%"></stop>
            <stop stop-color="#FFFFFF" offset="7%"></stop>
            <stop stop-color="#FFFFFF" offset="17%"></stop>
            <stop stop-color="#C82F1C" offset="27%"></stop>
            <stop stop-color="#820C01" offset="33%"></stop>
            <stop stop-color="#A31601" offset="46%"></stop>
            <stop stop-color="#B31301" offset="72%"></stop>
            <stop stop-color="#E82609" offset="99%"></stop>
            <stop stop-color="#E82609" offset="100%"></stop>
        </linearGradient>
        <linearGradient x1="58.7919609%" y1="65.2049657%" x2="11.9636556%" y2="50.1275621%" id="linearGradient-10">
            <stop stop-color="#8C0C01" offset="0%"></stop>
            <stop stop-color="#8C0C01" offset="0%"></stop>
            <stop stop-color="#990C00" offset="54%"></stop>
            <stop stop-color="#A80D0E" offset="99%"></stop>
            <stop stop-color="#A80D0E" offset="100%"></stop>
        </linearGradient>
        <linearGradient x1="79.3194899%" y1="62.7538068%" x2="23.088288%" y2="17.8876818%" id="linearGradient-11">
            <stop stop-color="#7E110B" offset="0%"></stop>
            <stop stop-color="#7E110B" offset="0%"></stop>
            <stop stop-color="#9E0C00" offset="99%"></stop>
            <stop stop-color="#9E0C00" offset="100%"></stop>
        </linearGradient>
        <linearGradient x1="92.8800277%" y1="74.1223655%" x2="59.8414537%" y2="39.7039965%" id="linearGradient-12">
            <stop stop-color="#79130D" offset="0%"></stop>
            <stop stop-color="#79130D" offset="0%"></stop>
            <stop stop-color="#9E120B" offset="99%"></stop>
            <stop stop-color="#9E120B" offset="100%"></stop>
        </linearGradient>
        <radialGradient cx="32.0008013%" cy="40.2100469%" fx="32.0008013%" fy="40.2100469%" r="133.14407%" gradientTransform="translate(0.320008,0.402100),scale(0.522539,1.000000),translate(-0.320008,-0.402100)" id="radialGradient-13">
            <stop stop-color="#A80D00" offset="0%"></stop>
            <stop stop-color="#A80D00" offset="0%"></stop>
            <stop stop-color="#7E0E08" offset="99%"></stop>
            <stop stop-color="#7E0E08" offset="100%"></stop>
        </radialGradient>
        <radialGradient cx="13.5493795%" cy="40.859922%" fx="13.5493795%" fy="40.859922%" r="113.540881%" gradientTransform="translate(0.135494,0.408599),scale(0.778453,1.000000),translate(-0.135494,-0.408599)" id="radialGradient-14">
            <stop stop-color="#A30C00" offset="0%"></stop>
            <stop stop-color="#A30C00" offset="0%"></stop>
            <stop stop-color="#800E08" offset="99%"></stop>
            <stop stop-color="#800E08" offset="100%"></stop>
        </radialGradient>
        <linearGradient x1="56.5701955%" y1="101.716594%" x2="3.10480737%" y2="11.9932603%" id="linearGradient-15">
            <stop stop-color="#8B2114" offset="0%"></stop>
            <stop stop-color="#8B2114" offset="0%"></stop>
            <stop stop-color="#9E100A" offset="43%"></stop>
            <stop stop-color="#B3100C" offset="99%"></stop>
            <stop stop-color="#B3100C" offset="100%"></stop>
        </linearGradient>
        <linearGradient x1="30.8698732%" y1="35.5989756%" x2="92.4707626%" y2="100.693616%" id="linearGradient-16">
            <stop stop-color="#B31000" offset="0%"></stop>
            <stop stop-color="#B31000" offset="0%"></stop>
            <stop stop-color="#910F08" offset="44%"></stop>
            <stop stop-color="#791C12" offset="99%"></stop>
            <stop stop-color="#791C12" offset="100%"></stop>
        </linearGradient>
    </defs>
    <g id="Garage" stroke="none" stroke-width="1" fill="none" fill-rule="evenodd">
        <g id="Yard-/-Pricing-Copy-2" transform="translate(-802.000000, -3664.000000)" fill-rule="nonzero">
            <g id="Features" transform="translate(465.000000, 1330.000000)">
                <g id="Langs" transform="translate(150.000000, 2133.000000)">
                    <g id="Group-5" transform="translate(0.000000, 179.000000)">
                        <g id="ruby" transform="translate(187.000000, 22.000000)">
                            <polygon id="Path" fill="url(#linearGradient-1)" points="30.9752685 26.3158616 8.14841266 39.8703162 37.7048726 37.8646929 39.9813026 8.06164154"></polygon>
                            <polygon id="Path" fill="url(#linearGradient-2)" points="37.7533031 37.8443117 35.2129274 20.3104936 28.293234 29.4476933"></polygon>
                            <polygon id="Path" fill="url(#linearGradient-3)" points="37.7876078 37.8443117 19.1764154 36.3833285 8.24729136 39.8321774"></polygon>
                            <polygon id="Path" fill="url(#linearGradient-4)" points="8.27352449 39.8360115 12.9228417 24.6046546 2.69192235 26.7922955"></polygon>
                            <polygon id="Path" fill="url(#linearGradient-5)" points="28.2914179 29.4981416 24.0134003 12.7412277 11.770602 24.2172116"></polygon>
                            <polygon id="Path" fill="url(#linearGradient-6)" points="39.0106769 12.9773259 27.4378323 3.5253286 24.2151936 13.9439157"></polygon>
                            <polygon id="Path" fill="url(#linearGradient-7)" points="33.5985812 0.155380826 26.7920938 3.91680756 22.4979329 0.104932506"></polygon>
                            <polygon id="Path" fill="url(#linearGradient-8)" points="0 31.9014996 2.85133904 26.7012869 0.544841856 20.5062331"></polygon>
                            <path d="M0.391478963,20.3104936 L2.71210168,26.8929904 L12.7957119,24.630686 L24.3080185,13.9316063 L27.5568904,3.61209972 L22.4412289,0 L13.7439385,3.25492562 C11.0037876,5.80357473 5.68653464,10.8463888 5.49483101,10.9412317 C5.30514533,11.0380924 1.98362794,17.3158814 0.391478963,20.3104936 L0.391478963,20.3104936 Z" id="Path" fill="#FFFFFF"></path>
                            <path d="M8.53989161,8.48540744 C14.4786678,2.59707951 22.1347049,-0.881836634 25.0728151,2.08250665 C28.009109,5.04684993 24.895237,12.25087 18.9564607,18.1371801 C13.0176845,24.02349 5.45649029,27.6941098 2.52039807,24.7297664 C-0.417712089,21.7674411 2.60111539,14.3717174 8.53989161,8.48540744 L8.53989161,8.48540744 Z" id="Path" fill="url(#linearGradient-9)"></path>
                            <path d="M8.27352449,39.8299576 L12.8865189,24.5501705 L28.2066646,29.4719085 C22.6674392,34.6660676 16.5066904,39.0570894 8.27352449,39.8299576 L8.27352449,39.8299576 Z" id="Path" fill="url(#linearGradient-10)"></path>
                            <path d="M24.3281978,13.9015391 L28.2611489,29.4799802 C32.8882689,24.6147443 37.0411744,19.3842624 39.0750489,12.9147699 L24.3281978,13.9015391 L24.3281978,13.9015391 Z" id="Path" fill="url(#linearGradient-11)"></path>
                            <path d="M39.0348921,12.9934693 C40.6088797,8.2432555 40.9721076,1.42869642 33.549949,0.163452557 L27.4598278,3.52734654 L39.0348921,12.9934693 L39.0348921,12.9934693 Z" id="Path" fill="url(#linearGradient-12)"></path>
                            <path d="M0,31.8328899 C0.217936742,39.6727606 5.87420238,39.7895989 8.28361415,39.8584105 L2.71815548,26.8607035 L0,31.8328899 L0,31.8328899 Z" id="Path" fill="#9E1209"></path>
                            <path d="M24.3501933,13.9257543 C27.9057909,16.1111755 35.0716722,20.5001793 35.2169633,20.5808966 C35.4427699,20.7080264 38.3064184,15.7519834 38.9561928,12.9510927 L24.3501933,13.9257543 L24.3501933,13.9257543 Z" id="Path" fill="url(#radialGradient-13)"></path>
                            <path d="M12.8804651,24.5501705 L19.0472678,36.4479023 C22.6936723,34.4703282 25.5490472,32.0609164 28.1642882,29.4799802 L12.8804651,24.5501705 L12.8804651,24.5501705 Z" id="Path" fill="url(#radialGradient-14)"></path>
                            <path d="M2.69394028,26.8768469 L1.82017539,37.2813085 C3.46882648,39.5333216 5.73698295,39.729061 8.11612573,39.5535009 C6.39482905,35.2694295 2.95627156,26.7033048 2.69394028,26.8768469 L2.69394028,26.8768469 Z" id="Path" fill="url(#linearGradient-15)"></path>
                            <path d="M27.4237068,3.55357967 L39.6745768,5.27285842 C39.0207666,2.50223667 37.0129235,0.714348212 33.5905093,0.155380826 L27.4237068,3.55357967 L27.4237068,3.55357967 Z" id="Path" fill="url(#linearGradient-16)"></path>
                        </g>
                    </g>
                </g>
            </g>
        </g>
    </g>
</svg>

<svg width="40" height="40" xmlns="http://www.w3.org/2000/svg"><defs><linearGradient x1="84.75%" y1="111.399%" x2="58.254%" y2="64.584%" id="a"><stop stop-color="#FB7655" offset="0%"/><stop stop-color="#FB7655" offset="0%"/><stop stop-color="#E42B1E" offset="41%"/><stop stop-color="#900" offset="99%"/><stop stop-color="#900" offset="100%"/></linearGradient><linearGradient x1="116.651%" y1="60.89%" x2="1.746%" y2="19.288%" id="b"><stop stop-color="#871101" offset="0%"/><stop stop-color="#871101" offset="0%"/><stop stop-color="#911209" offset="99%"/><stop stop-color="#911209" offset="100%"/></linearGradient><linearGradient x1="75.774%" y1="219.327%" x2="38.978%" y2="7.829%" id="c"><stop stop-color="#871101" offset="0%"/><stop stop-color="#871101" offset="0%"/><stop stop-color="#911209" offset="99%"/><stop stop-color="#911209" offset="100%"/></linearGradient><linearGradient x1="50.012%" y1="7.234%" x2="66.483%" y2="79.135%" id="d"><stop stop-color="#FFF" offset="0%"/><stop stop-color="#FFF" offset="0%"/><stop stop-color="#E57252" offset="23%"/><stop stop-color="#DE3B20" offset="46%"/><stop stop-color="#A60003" offset="99%"/><stop stop-color="#A60003" offset="100%"/></linearGradient><linearGradient x1="46.174%" y1="16.348%" x2="49.932%" y2="83.047%" id="e"><stop stop-color="#FFF" offset="0%"/><stop stop-color="#FFF" offset="0%"/><stop stop-color="#E4714E" offset="23%"/><stop stop-color="#BE1A0D" offset="56%"/><stop stop-color="#A80D00" offset="99%"/><stop stop-color="#A80D00" offset="100%"/></linearGradient><linearGradient x1="36.965%" y1="15.594%" x2="49.528%" y2="92.478%" id="f"><stop stop-color="#FFF" offset="0%"/><stop stop-color="#FFF" offset="0%"/><stop stop-color="#E46342" offset="18%"/><stop stop-color="#C82410" offset="40%"/><stop stop-color="#A80D00" offset="99%"/><stop stop-color="#A80D00" offset="100%"/></linearGradient><linearGradient x1="13.609%" y1="58.346%" x2="85.764%" y2="-46.717%" id="g"><stop stop-color="#FFF" offset="0%"/><stop stop-color="#FFF" offset="0%"/><stop stop-color="#C81F11" offset="54%"/><stop stop-color="#BF0905" offset="99%"/><stop stop-color="#BF0905" offset="100%"/></linearGradient><linearGradient x1="27.624%" y1="21.135%" x2="50.745%" y2="79.056%" id="h"><stop stop-color="#FFF" offset="0%"/><stop stop-color="#FFF" offset="0%"/><stop stop-color="#DE4024" offset="31%"/><stop stop-color="#BF190B" offset="99%"/><stop stop-color="#BF190B" offset="100%"/></linearGradient><linearGradient x1="-20.667%" y1="122.282%" x2="104.242%" y2="-6.342%" id="i"><stop stop-color="#BD0012" offset="0%"/><stop stop-color="#BD0012" offset="0%"/><stop stop-color="#FFF" offset="7%"/><stop stop-color="#FFF" offset="17%"/><stop stop-color="#C82F1C" offset="27%"/><stop stop-color="#820C01" offset="33%"/><stop stop-color="#A31601" offset="46%"/><stop stop-color="#B31301" offset="72%"/><stop stop-color="#E82609" offset="99%"/><stop stop-color="#E82609" offset="100%"/></linearGradient><linearGradient x1="58.792%" y1="65.205%" x2="11.964%" y2="50.128%" id="j"><stop stop-color="#8C0C01" offset="0%"/><stop stop-color="#8C0C01" offset="0%"/><stop stop-color="#990C00" offset="54%"/><stop stop-color="#A80D0E" offset="99%"/><stop stop-color="#A80D0E" offset="100%"/></linearGradient><linearGradient x1="79.319%" y1="62.754%" x2="23.088%" y2="17.888%" id="k"><stop stop-color="#7E110B" offset="0%"/><stop stop-color="#7E110B" offset="0%"/><stop stop-color="#9E0C00" offset="99%"/><stop stop-color="#9E0C00" offset="100%"/></linearGradient><linearGradient x1="92.88%" y1="74.122%" x2="59.841%" y2="39.704%" id="l"><stop stop-color="#79130D" offset="0%"/><stop stop-color="#79130D" offset="0%"/><stop stop-color="#9E120B" offset="99%"/><stop stop-color="#9E120B" offset="100%"/></linearGradient><linearGradient x1="56.57%" y1="101.717%" x2="3.105%" y2="11.993%" id="o"><stop stop-color="#8B2114" offset="0%"/><stop stop-color="#8B2114" offset="0%"/><stop stop-color="#9E100A" offset="43%"/><stop stop-color="#B3100C" offset="99%"/><stop stop-color="#B3100C" offset="100%"/></linearGradient><linearGradient x1="30.87%" y1="35.599%" x2="92.471%" y2="100.694%" id="p"><stop stop-color="#B31000" offset="0%"/><stop stop-color="#B31000" offset="0%"/><stop stop-color="#910F08" offset="44%"/><stop stop-color="#791C12" offset="99%"/><stop stop-color="#791C12" offset="100%"/></linearGradient><radialGradient cx="32.001%" cy="40.21%" fx="32.001%" fy="40.21%" r="133.144%" gradientTransform="matrix(.52254 0 0 1 .153 0)" id="m"><stop stop-color="#A80D00" offset="0%"/><stop stop-color="#A80D00" offset="0%"/><stop stop-color="#7E0E08" offset="99%"/><stop stop-color="#7E0E08" offset="100%"/></radialGradient><radialGradient cx="13.549%" cy="40.86%" fx="13.549%" fy="40.86%" r="113.541%" gradientTransform="matrix(.77845 0 0 1 .03 0)" id="n"><stop stop-color="#A30C00" offset="0%"/><stop stop-color="#A30C00" offset="0%"/><stop stop-color="#800E08" offset="99%"/><stop stop-color="#800E08" offset="100%"/></radialGradient></defs><g fill-rule="nonzero" fill="none"><path fill="url(#a)" d="M30.975 26.316L8.148 39.87l29.557-2.005L39.98 8.062z"/><path fill="url(#b)" d="M37.753 37.844l-2.54-17.534-6.92 9.138z"/><path fill="url(#c)" d="M37.788 37.844l-18.612-1.46-10.929 3.448z"/><path fill="url(#d)" d="M8.274 39.836l4.649-15.231-10.231 2.187z"/><path fill="url(#e)" d="M28.291 29.498l-4.278-16.757-12.242 11.476z"/><path fill="url(#f)" d="M39.01 12.977L27.439 3.525l-3.223 10.419z"/><path fill="url(#g)" d="M33.599.155l-6.807 3.762L22.498.105z"/><path fill="url(#h)" d="M0 31.901l2.851-5.2-2.306-6.195z"/><path d="M.391 20.31l2.321 6.583 10.084-2.262 11.512-10.7 3.249-10.319L22.44 0l-8.697 3.255c-2.74 2.549-8.057 7.591-8.25 7.686-.189.097-3.51 6.375-5.103 9.37z" fill="#FFF"/><path d="M8.54 8.485c5.939-5.888 13.595-9.367 16.533-6.402 2.936 2.964-.178 10.168-6.117 16.054-5.938 5.886-13.5 9.557-16.436 6.593-2.938-2.963.081-10.358 6.02-16.245z" fill="url(#i)"/><path d="M8.274 39.83l4.613-15.28 15.32 4.922c-5.54 5.194-11.7 9.585-19.933 10.358z" fill="url(#j)"/><path d="M24.328 13.902l3.933 15.578c4.627-4.865 8.78-10.096 10.814-16.565l-14.747.987z" fill="url(#k)"/><path d="M39.035 12.993C40.609 8.243 40.972 1.43 33.55.163l-6.09 3.364 11.575 9.466z" fill="url(#l)"/><path d="M0 31.833c.218 7.84 5.874 7.957 8.284 8.025L2.718 26.861 0 31.833z" fill="#9E1209"/><path d="M24.35 13.926a3716.47 3716.47 0 0010.867 6.655c.226.127 3.09-4.829 3.74-7.63l-14.607.975z" fill="url(#m)"/><path d="M12.88 24.55l6.167 11.898c3.647-1.978 6.502-4.387 9.117-6.968L12.88 24.55z" fill="url(#n)"/><path d="M2.694 26.877L1.82 37.28c1.649 2.252 3.917 2.448 6.296 2.273-1.721-4.285-5.16-12.85-5.422-12.677z" fill="url(#o)"/><path d="M27.424 3.554l12.25 1.719c-.653-2.77-2.661-4.559-6.083-5.118l-6.167 3.399z" fill="url(#p)"/></g></svg>
